src/pos-icons/subdirectory-arrow-right.svg

<svg height="24" viewBox="0 0 24 24" width="24" xmlns="http://www.w3.org/2000/svg"><path d="m19 15-6 6-1.42-1.42 3.59-3.58h-11.17v-12h2v10h9.17l-3.59-3.58 1.42-1.42z"/></svg>

<?xml version="1.0" encoding="UTF-8"?><!DOCTYPE svg PUBLIC "-//W3C//DTD SVG 1.1//EN" "http://www.w3.org/Graphics/SVG/1.1/DTD/svg11.dtd"><svg xmlns="http://www.w3.org/2000/svg" xmlns:xlink="http://www.w3.org/1999/xlink" version="1.1" id="mdi-subdirectory-arrow-right" width="24" height="24" viewBox="0 0 24 24"><path d="M19,15L13,21L11.58,19.58L15.17,16H4V4H6V14H15.17L11.58,10.42L13,9L19,15Z" /></svg>
